X:19
T:Planxty George Brabazon
Z: id:dc-ocarolan-12
M:C
L:1/8
K:G Major
ge|d2G2 cBAG|d2G2 cBAG|e2A2 ABcA|e2A2 ABcA|!
d2cB g2fe|d2cB cBAG|BAGE DEGA|B2G2 G2:|!
ga|b2gb a2fa|g2dg edcB|e2A2 ABcA|e2A2 A2ga|!
b2gb a2fa|g2dg edcB|BAGE DEGA|B2G2 G2:|!

